X: 27497
T: Molly's
R: reel
M: 4/4
K: Gmajor
dgga e3 d|geed Bdge|dBBA GAGE|DEGA BcBA|
dgga e2 ge|dBBA GEGA|BGGc GdGg|edBA G3 G:|
dgfd e3 d|Bgfd edBA|BGGB GcGd|e2 dB A2 Bd|
egfd e3 f|gbag edBA|BGGc GdGg|edBA G3 G:|

